X: 23814
T: Little Katie Taylor
R: reel
M: 4/4
K: Dmajor
|:D2FA GEFE|EDFA d2ef|geag fddB|cAAG EFGE|
D2FA GEFE|EDFA d2ef|geag ed (3Bcd|1 eddc dBAF:|2 eddc d2ag||
|:fdfa g2ag|fdfa g2ag|fd=cA BG~G2|ABcA dcAg|
fdfa g2ag|fdfa g2ag|fd=cA BG~G2|1 ABcA d2ag:|2 ABcA dBAF||

